src/default/cmd/ar/lc_alphalowliststyle.svg

<?xml version="1.0" encoding="UTF-8" standalone="no"?>
<svg
   xmlns:dc="http://purl.org/dc/elements/1.1/"
   xmlns:cc="http://creativecommons.org/ns#"
   xmlns:rdf="http://www.w3.org/1999/02/22-rdf-syntax-ns#"
   xmlns:svg="http://www.w3.org/2000/svg"
   xmlns="http://www.w3.org/2000/svg"
   xmlns:sodipodi="http://sodipodi.sourceforge.net/DTD/sodipodi-0.dtd"
   xmlns:inkscape="http://www.inkscape.org/namespaces/inkscape"
   viewBox="0 0 24 24"
   version="1.1"
   id="svg10"
   sodipodi:docname="lc_alphalowliststyle.svg"
   inkscape:version="1.0.1 (3bc2e813f5, 2020-09-07)"
   inkscape:export-filename="/home/jupiter007/Libreoffice yaru theme fullcolor/build/cmd/ar/lc_alphalowliststyle.png"
   inkscape:export-xdpi="96"
   inkscape:export-ydpi="96">
  <metadata
     id="metadata16">
    <rdf:RDF>
      <cc:Work
         rdf:about="">
        <dc:format>image/svg+xml</dc:format>
        <dc:type
           rdf:resource="http://purl.org/dc/dcmitype/StillImage" />
        <dc:title></dc:title>
      </cc:Work>
    </rdf:RDF>
  </metadata>
  <defs
     id="defs14" />
  <sodipodi:namedview
     pagecolor="#808080"
     bordercolor="#666666"
     borderopacity="1"
     objecttolerance="10"
     gridtolerance="10"
     guidetolerance="10"
     inkscape:pageopacity="0"
     inkscape:pageshadow="2"
     inkscape:window-width="1920"
     inkscape:window-height="1016"
     id="namedview12"
     showgrid="true"
     inkscape:zoom="27.812867"
     inkscape:cx="5.8783613"
     inkscape:cy="11.705287"
     inkscape:window-x="1920"
     inkscape:window-y="27"
     inkscape:window-maximized="1"
     inkscape:current-layer="svg10"
     inkscape:document-rotation="0">
    <inkscape:grid
       type="xygrid"
       id="grid823" />
  </sodipodi:namedview>
  <rect
     style="fill:#ffffff;fill-rule:evenodd;stroke-width:3;stroke-linecap:round;stroke-linejoin:round"
     id="rect843-2"
     width="10"
     height="1"
     x="-16"
     y="-8"
     transform="scale(-1)" />
  <rect
     style="fill:#232629;fill-rule:evenodd;stroke-width:3;stroke-linecap:round;stroke-linejoin:round"
     id="rect861"
     width="10"
     height="1"
     x="-16"
     y="-7"
     transform="scale(-1)" />
  <rect
     style="fill:#ffffff;fill-rule:evenodd;stroke-width:3;stroke-linecap:round;stroke-linejoin:round"
     id="rect867"
     width="14"
     height="1"
     x="-16"
     y="-6"
     transform="scale(-1)" />
  <rect
     style="fill:#232629;fill-rule:evenodd;stroke-width:3;stroke-linecap:round;stroke-linejoin:round"
     id="rect869"
     width="14"
     height="1"
     x="-16"
     y="-5"
     transform="scale(-1)" />
  <rect
     style="fill:#ffffff;fill-rule:evenodd;stroke-width:3;stroke-linecap:round;stroke-linejoin:round"
     id="rect864"
     width="10"
     height="1"
     x="-16"
     y="-14"
     transform="scale(-1)" />
  <rect
     style="fill:#232629;fill-rule:evenodd;stroke-width:3;stroke-linecap:round;stroke-linejoin:round"
     id="rect866"
     width="10"
     height="1"
     x="-16"
     y="-13"
     transform="scale(-1)" />
  <rect
     style="fill:#ffffff;fill-rule:evenodd;stroke-width:3;stroke-linecap:round;stroke-linejoin:round"
     id="rect868"
     width="14"
     height="1"
     x="-16"
     y="-12"
     transform="scale(-1)" />
  <rect
     style="fill:#232629;fill-rule:evenodd;stroke-width:3;stroke-linecap:round;stroke-linejoin:round"
     id="rect870"
     width="14"
     height="1"
     x="-16"
     y="-11"
     transform="scale(-1)" />
  <rect
     style="fill:#ffffff;fill-rule:evenodd;stroke-width:3;stroke-linecap:round;stroke-linejoin:round"
     id="rect877"
     width="10"
     height="1"
     x="-16"
     y="-20"
     transform="scale(-1)" />
  <rect
     style="fill:#232629;fill-rule:evenodd;stroke-width:3;stroke-linecap:round;stroke-linejoin:round"
     id="rect879"
     width="10"
     height="1"
     x="-16"
     y="-19"
     transform="scale(-1)" />
  <rect
     style="fill:#ffffff;fill-rule:evenodd;stroke-width:3;stroke-linecap:round;stroke-linejoin:round"
     id="rect881"
     width="14"
     height="1"
     x="-16"
     y="-18"
     transform="scale(-1)" />
  <rect
     style="fill:#232629;fill-rule:evenodd;stroke-width:3;stroke-linecap:round;stroke-linejoin:round"
     id="rect883"
     width="14"
     height="1"
     x="-16"
     y="-17"
     transform="scale(-1)" />
  <path
     id="rect873"
     style="fill:#00ff00;fill-opacity:1;fill-rule:evenodd;stroke:none;stroke-width:2;stroke-linecap:round;stroke-linejoin:round"
     d="m 19.951023,4.0000004 a 2,2 0 0 0 -1.951172,2 2,2 0 0 0 2,2 2,2 0 0 0 1,-0.2695312 v 0.2695312 h 1 V 6.0488285 a 2,2 0 0 0 0,-0.048828 V 4.0000004 h -1 v 0.2695312 a 2,2 0 0 0 -1,-0.2695312 2,2 0 0 0 -0.04883,0 z m 0.04883,1 a 1,1 0 0 1 1,1 1,1 0 0 1 -1,1 1,1 0 0 1 -1,-1 1,1 0 0 1 1,-1 z" />
  <path
     id="path882"
     style="fill:#00ff00;fill-opacity:1;fill-rule:evenodd;stroke:none;stroke-width:2;stroke-linecap:round;stroke-linejoin:round"
     d="M 17.999851,13.999953 V 17.998 a 2,2 0 0 0 0,0.002 v 2 h 1 v -0.269578 a 2,2 0 0 0 1,0.269531 2,2 0 0 0 2,-2 2,2 0 0 0 -2,-2 2,2 0 0 0 -0.04883,0 2,2 0 0 0 -0.95117,0.267578 v -2.267578 z m 2,3 a 1,1 0 0 1 1,1 1,1 0 0 1 -1,1 1,1 0 0 1 -1,-1 1,1 0 0 1 1,-1 z" />
</svg>

<?xml version="1.0" encoding="UTF-8" standalone="no"?>
<svg
   viewBox="0 0 24 24"
   version="1.1"
   id="svg10"
   sodipodi:docname="lc_alphalowliststyle.svg"
   inkscape:version="1.4.2 (ebf0e940d0, 2025-05-08)"
   inkscape:export-filename="/home/jupiter007/Libreoffice yaru theme fullcolor/build/cmd/ar/lc_alphalowliststyle.png"
   inkscape:export-xdpi="96"
   inkscape:export-ydpi="96"
   xmlns:inkscape="http://www.inkscape.org/namespaces/inkscape"
   xmlns:sodipodi="http://sodipodi.sourceforge.net/DTD/sodipodi-0.dtd"
   xmlns="http://www.w3.org/2000/svg"
   xmlns:svg="http://www.w3.org/2000/svg"
   xmlns:rdf="http://www.w3.org/1999/02/22-rdf-syntax-ns#"
   xmlns:cc="http://creativecommons.org/ns#"
   xmlns:dc="http://purl.org/dc/elements/1.1/">
  <path
     id="rect873"
     style="fill:#00ff00;fill-opacity:1;fill-rule:evenodd;stroke:none;stroke-width:2;stroke-linecap:round;stroke-linejoin:round"
     d="M 19.951172 4 A 2 2 0 0 0 18 6 A 2 2 0 0 0 20 8 A 2 2 0 0 0 21 7.7304688 L 21 8 L 22 8 L 22 6.0488281 A 2 2 0 0 0 22 6 L 22 4 L 21 4 L 21 4.2695312 A 2 2 0 0 0 20 4 A 2 2 0 0 0 19.951172 4 z M 20 5 A 1 1 0 0 1 21 6 A 1 1 0 0 1 20 7 A 1 1 0 0 1 19 6 A 1 1 0 0 1 20 5 z M 18 14 L 18 17.998047 A 2 2 0 0 0 18 18 L 18 20 L 19 20 L 19 19.730469 A 2 2 0 0 0 20 20 A 2 2 0 0 0 22 18 A 2 2 0 0 0 20 16 A 2 2 0 0 0 19.951172 16 A 2 2 0 0 0 19 16.267578 L 19 14 L 18 14 z M 20 17 A 1 1 0 0 1 21 18 A 1 1 0 0 1 20 19 A 1 1 0 0 1 19 18 A 1 1 0 0 1 20 17 z " />
  <metadata
     id="metadata16">
    <rdf:RDF>
      <cc:Work
         rdf:about="">
        <dc:format>image/svg+xml</dc:format>
        <dc:type
           rdf:resource="http://purl.org/dc/dcmitype/StillImage" />
        <dc:title />
      </cc:Work>
    </rdf:RDF>
  </metadata>
  <defs
     id="defs14" />
  <sodipodi:namedview
     pagecolor="#ffffff"
     bordercolor="#666666"
     borderopacity="1"
     objecttolerance="10"
     gridtolerance="10"
     guidetolerance="10"
     inkscape:pageopacity="0"
     inkscape:pageshadow="2"
     inkscape:window-width="1920"
     inkscape:window-height="1011"
     id="namedview12"
     showgrid="true"
     inkscape:zoom="39.333334"
     inkscape:cx="12.216102"
     inkscape:cy="12.063559"
     inkscape:window-x="0"
     inkscape:window-y="0"
     inkscape:window-maximized="1"
     inkscape:current-layer="svg10"
     inkscape:document-rotation="0"
     inkscape:showpageshadow="2"
     inkscape:pagecheckerboard="0"
     inkscape:deskcolor="#d1d1d1">
    <inkscape:grid
       type="xygrid"
       id="grid823"
       originx="0"
       originy="0"
       spacingy="1"
       spacingx="1"
       units="px" />
  </sodipodi:namedview>
  <path
     id="rect861"
     style="fill:#0000ff;fill-rule:evenodd;stroke-width:3;stroke-linecap:round;stroke-linejoin:round"
     d="M -2 -4 L -2 -5 L -16 -5 L -16 -4 L -2 -4 z M -6 -6 L -6 -7 L -16 -7 L -16 -6 L -6 -6 z M -2 -10 L -2 -11 L -16 -11 L -16 -10 L -2 -10 z M -6 -12 L -6 -13 L -16 -13 L -16 -12 L -6 -12 z M -2 -16 L -2 -17 L -16 -17 L -16 -16 L -2 -16 z M -6 -18 L -6 -19 L -16 -19 L -16 -18 L -6 -18 z "
     transform="scale(-1)" />
</svg>
